X: 211
T: Maonuzi guandeng
L: 1/8
M: 2/4
K: F
c c A d/ f/ [I:setbarnb 1]| 
c4 | 
f d/ c/ A c | 
G4 | 
c c d c | 
A c_E2 | 
G/ G/ G/ G/ G C | 
D F G G | 
G D/ F/C2 |]

@@@ Tune index: 9085
